!!!COM: Schubert, Franz
!!!CNT: Deutscher
!!!TXO: Deutsch
!!!OTL: "Rueckblick"
!!!OPR: Winterreise
!!!LYR: Mu2ller, Wilhelm
!!!OPS: Opus 89
!!!ONM: No. 8
!!!ODT: 1827/
!!NB: Vocal melody only encoded.
**kern	**silbe
*clefG2	*
*k[b-e-]	*
*M3/4	*
*MM[geschwind]	*
=10	=10
4r	.
4r	.
8r	.
{8d	{Es
=11	=11
8d	brennt
8f#	mir
8g	un-
8a	-ter
8b-	bei-
8a	-den
=12	=12
8g	Soh-
16a}	-len,}
{16a	{tret'
8b-	ich
8cc	auch
8dd	schon
8een	auf
=13	=13
8ff	Eis
8een	und
4dd}	Schnee,}
8r	.
{8d	{ich
=14	=14
8d	mo2cht'
8f#	nicht
8g	wie-
8a	-der
8b-	A-
8a	-them
=15	=15
8g	ho-
16a}	-len,}
{16a	{bis
8b-	ich
8cc	nicht
8dd	mehr
8een	die
=16	=16
8ff	Thu2r-
8een	-me
4dd}	seh',}
8r	.
{8dd	{hab'
=17	=17
8g#	mich
8a	an
8dd	je-
8ff	-den
8een	Stein
8cc#	ge-
=18	=18
8dd	-sto-
8a}	-ssen,}
4r	.
8r	.
{8dd	{so
=19	=19
8g#	eilt'
8a	ich
8dd	zu
8ff	der
8een	Stadt
8cc#	hin-
=20	=20
4dd}	-aus;}
4r	.
8r	.
{8dd	{die
=21	=21
8ee-	Kra2-
8dd	-hen
8b-	war-
8g	-fen
8ee-	Ba2ll'
8dd	und
=22	=22
8b-	Schlo-
16g}	-ssen}
{16dd	{auf
8b-	mei-
8dd	-nen
8gg	Hut
8dd	von
=23	=23
8b-	je-
8a	-dem
4g}	Haus,}
8r	.
{8dd	{die
=24	=24
8ee-	Kra2-
8dd	-hen
8b-	war-
8g	-fen
8ee-	Ba2ll'
8dd	und
=25	=25
8b-	Schlo-
16g}	-ssen}
{16dd	{auf
8gg	mei-
8dd	-nen
8b-	Hut
8dd	von
=26	=26
8b-	je-
8a	-dem
4g}	Haus.}
4r	.
=27	=27
*k[bnenf#]	*
4r	.
4r	.
8r;	.
{8b	{Wie
=28	=28
8b	an-
8cc	-ders
8b	hast
8a	du
8g	mich
8a	em-
=29	=29
4b	-pfan-
4g}	-gen,}
8r	.
{8a	{du
=30	=30
8b	Stadt
8cc	der
8.ee	Un-
16dd	-be-
8cc	-sta2n-
8b	-dig-
=31	=31
2a}	-keit!}
8r	.
{8d	{an
=32	=32
8b	dei-
8cc	-nen
8b	blan-
8a	-ken
8g	Fen-
8a	-stern
=33	=33
4b	san-
4g}	-gen}
8r	.
{8b	{die
=34	=34
8dd	Lereh'
8ee	und
8dd	Nach-
8cc	-ti-
8b	-gall
8a	im
=35	=35
2g}	Streit.}
8r	.
{8g	{Die
=36	=36
8a	run-
8cc	-den
8b	Lin-
8a	-den-
8cc	-ba2u-
8ee	-me
=37	=37
4dd	blu2h-
4b}	-ten,}
8r	.
{8a	{die
=38	=38
8b	kla-
8cc	-ren
8ee	Rin-
8dd	-nen
8cc	rausch-
8b	-ten
=39	=39
2a}	hell,}
8r	.
{8dd	{und
=40	=40
8dd#	ach,
8ee	zwei
8.gg	Ma2d-
16ff#	-chen-
8ee	-au-
8dd#	-gen
=41	=41
4ff#	glu2h-
4ee}	-ten!}
8r	.
{8ee	{da
=42	=42
8ddn	war's
8ee	ge-
8ddn	-scheh'n
8cc	um
8b	dich,
8a	Ge-
=43	=43
2b}	-sell!}
8r	.
{8dd	{und
=44	=44
8dd#	ach,
8ee	zwei
8.gg	Ma2d-
16ff#	-chen-
8ee	-au-
8dd#	-gen
=45	=45
4ff#	glu2h-
4ee}	-ten!}
8r	.
{8ee	{da
=46	=46
8dd	war's
8gg	ge-
8.dd	-scheh'n
16cc	um
8b	dich,
8a	Ge-
=47	=47
4g}	-sell!}
4r	.
4r	.
=48	=48
4r	.
4r	.
8r	.
{8d	{Ko2mmt
=49	=49
*k[fnb-e-]	*
8d	mir
8f#	der
8g	Tag
8a	in
8b-	die
8cc	Ge-
=50	=50
8dd	-dan-
16a}	-ken,}
{16a	{mo2cht'
8b-	ich
8cc	noch
8dd	ein-
8een	-mal
=51	=51
8ff	ru2ck-
8een	-wa2rts
4dd}	seh'n,}
8r	.
{8d	{mo2cht'
=52	=52
8d	ich
8f#	zu-
8g	-ru2-
8a	-cke
8b-	wie-
8cc	-der
=53	=53
8dd	wan-
16a}	-ken,}
{16a	{vor
8b-	ih-
8cc	-rem
8dd	Hau-
8een	-se
=54	=54
8ff	stil-
8een	-le
4dd}	steh'n;}
8r	.
{8dd	{ko2mmt
=55	=55
8cc	mir
8dd	der
8ff	Tag
8ee-	in
8dd	die
8cc	Ge-
=56	=56
8dd	-dan-
8a}	-ken,}
4r	.
8r	.
{8dd	{mo2cht'
=57	=57
8cc	ich
8dd	noch
8ff	ein-
8ee-	-mal
8dd	ru2ck-
8cc	-wa2rts
=58	=58
2dd}	seh'n,}
8r	.
{8dd	{mo2cht'
=59	=59
*k[bnenf#]	*
8b	ich
8g	zu-
8ee	-ru2-
8dd	-cke
8b	wie-
8g	-der
=60	=60
8ee	wan-
16dd}	-ken,}
{16dd	{vor
8gg	ih-
8dd	-rem
8b	Hau-
8dd	-se
=61	=61
8b	stil-
8a	-le
4g}	steh'n,}
8r	.
{8dd	{mo2cht'
=62	=62
8b	ich
8g	zu-
8ee	-ru2-
8dd	-cke
8b	wie-
8g	-der
=63	=63
8ee	wan-
16dd}	-ken,}
{16dd	{vor
[2gg	ih-
=64	=64
8gg]	|
8dd	-rem
8b	Hau-
8dd	-se
8b	stil-
8a	-le
=65	=65
2g}	steh'n,}
4r	.
=66	=66
8r	.
{8dd	{vor
12dd	ih-
12ee	|
12dd	-rem
12dd	Hau-
12ee	|
12dd	-se
=67	=67
2dd	stil-
4b	-le
=68	=68
[2.g	steh'n.
=69	=69
4g]}	|}
4r	.
4r	.
*-	*-
